usr/share/icons/biglinux-icons-material/scalable/apps/element-nightly.svg

<?xml version="1.0" encoding="UTF-8" standalone="no"?>
<svg
   width="24"
   height="24"
   viewBox="0 0 24 24"
   fill="none"
   version="1.1"
   id="svg154"
   sodipodi:docname="app.svg"
   inkscape:version="1.2.2 (b0a8486541, 2022-12-01)"
   xml:space="preserve"
   inkscape:export-filename="../../../../svg/element-desktop.svg"
   inkscape:export-xdpi="96"
   inkscape:export-ydpi="96"
   xmlns:inkscape="http://www.inkscape.org/namespaces/inkscape"
   xmlns:sodipodi="http://sodipodi.sourceforge.net/DTD/sodipodi-0.dtd"
   xmlns:xlink="http://www.w3.org/1999/xlink"
   xmlns="http://www.w3.org/2000/svg"
   xmlns:svg="http://www.w3.org/2000/svg"
   xmlns:sketch="http://www.bohemiancoding.com/sketch/ns"><sodipodi:namedview
     id="namedview156"
     pagecolor="#ffffff"
     bordercolor="#000000"
     borderopacity="1"
     inkscape:showpageshadow="0"
     inkscape:pageopacity="1"
     inkscape:pagecheckerboard="false"
     inkscape:deskcolor="#ffffff"
     showgrid="true"
     inkscape:zoom="32"
     inkscape:cx="9.609375"
     inkscape:cy="15.453125"
     inkscape:window-width="1920"
     inkscape:window-height="1052"
     inkscape:window-x="0"
     inkscape:window-y="0"
     inkscape:window-maximized="1"
     inkscape:current-layer="svg154"
     showguides="true"
     guidecolor="#ff0000"
     guideopacity="1"
     inkscape:lockguides="true"
     showborder="true"
     borderlayer="true"><inkscape:grid
       type="xygrid"
       id="grid356"
       color="#000000"
       opacity="0.10196078"
       empcolor="#000000"
       empopacity="0.10196078"
       snapvisiblegridlinesonly="true"
       enabled="true"
       visible="true"
       dotted="false" /><sodipodi:guide
       position="4,12"
       orientation="-1,0"
       id="guide764"
       inkscape:locked="true"
       inkscape:label="left-circle"
       inkscape:color="rgb(255,0,0)" /><sodipodi:guide
       position="5,12"
       orientation="-1,0"
       id="guide2218"
       inkscape:locked="true"
       inkscape:label="left-square"
       inkscape:color="rgb(255,0,0)" /><sodipodi:guide
       position="12,20"
       orientation="0,1"
       id="guide2220"
       inkscape:locked="true"
       inkscape:label="top-circle"
       inkscape:color="rgb(255,0,0)" /><sodipodi:guide
       position="12,5"
       orientation="0,1"
       id="guide2222"
       inkscape:locked="true"
       inkscape:label="bottom-square"
       inkscape:color="rgb(255,0,0)" /><sodipodi:guide
       position="12,4"
       orientation="0,1"
       id="guide2224"
       inkscape:locked="true"
       inkscape:label="bottom-circle"
       inkscape:color="rgb(255,0,0)" /><sodipodi:guide
       position="19,12"
       orientation="-1,0"
       id="guide2226"
       inkscape:locked="true"
       inkscape:label="right-square"
       inkscape:color="rgb(255,0,0)" /><sodipodi:guide
       position="20,12"
       orientation="-1,0"
       id="guide2228"
       inkscape:locked="true"
       inkscape:label="right-circle"
       inkscape:color="rgb(255,0,0)" /><sodipodi:guide
       position="12,19"
       orientation="0,1"
       id="guide2230"
       inkscape:locked="true"
       inkscape:label="top-square"
       inkscape:color="rgb(255,0,0)" /><sodipodi:guide
       position="12,12"
       orientation="1,0"
       id="guide765"
       inkscape:locked="true" /><sodipodi:guide
       position="12,12"
       orientation="0,-1"
       id="guide767"
       inkscape:locked="true" /><sodipodi:guide
       position="12,12"
       orientation="0.70710678,0.70710678"
       id="guide2266"
       inkscape:locked="true"
       inkscape:label=""
       inkscape:color="rgb(255,0,0)" /><sodipodi:guide
       position="12,12"
       orientation="-0.70710678,0.70710678"
       id="guide2994"
       inkscape:locked="true"
       inkscape:label=""
       inkscape:color="rgb(255,0,0)" /><sodipodi:guide
       position="3,12"
       orientation="-1,0"
       id="guide131543"
       inkscape:locked="true"
       inkscape:label="left-horizontal"
       inkscape:color="rgb(255,0,0)" /><sodipodi:guide
       position="12,21"
       orientation="0,1"
       id="guide131545"
       inkscape:locked="true"
       inkscape:label="top-vertical"
       inkscape:color="rgb(255,0,0)" /><sodipodi:guide
       position="21,12"
       orientation="-1,0"
       id="guide131547"
       inkscape:locked="true"
       inkscape:label="right-horizontal"
       inkscape:color="rgb(255,0,0)" /><sodipodi:guide
       position="12,3"
       orientation="0,1"
       id="guide131549"
       inkscape:locked="true"
       inkscape:label="bottom-vertical"
       inkscape:color="rgb(255,0,0)" /></sodipodi:namedview><defs
     id="defs152"><linearGradient
       inkscape:collect="always"
       id="linearGradient2802"><stop
         style="stop-color:#0dbc8a;stop-opacity:1"
         offset="0"
         id="stop2798" /><stop
         style="stop-color:#9955ff;stop-opacity:1"
         offset="1"
         id="stop2800" /></linearGradient><linearGradient
       inkscape:collect="always"
       xlink:href="#linearGradient2802"
       id="linearGradient2804"
       x1="57.286934"
       y1="95.767044"
       x2="55.752842"
       y2="-1.2642046"
       gradientUnits="userSpaceOnUse"
       gradientTransform="matrix(0.24444444,0,0,0.24444444,-0.22222222,-0.22222222)" /></defs><path
     d="M 12,0.99999998 C 2,0.99999998 0.99999998,6 0.99999998,12 0.99999998,20 4.0000001,23 12,23 20,23 23,20 23,12 23,6 22,0.99999998 12,0.99999998 Z"
     sketch:type="MSShapeGroup"
     id="path6"
     style="font-variation-settings:normal;display:inline;opacity:1;vector-effect:none;fill:url(#linearGradient2804);fill-opacity:1;stroke-width:1.11627;stroke-linecap:butt;stroke-linejoin:miter;stroke-miterlimit:4;stroke-dasharray:none;stroke-dashoffset:0;stroke-opacity:1;-inkscape-stroke:none;stop-color:#000000;stop-opacity:1"
     sodipodi:nodetypes="sssss"
     inkscape:label="Shape"
     sodipodi:insensitive="true" /><path
     d="m 10.75137,4.1947729 a 0.93665675,0.93665675 0 1 0 0,1.8733135 4.370573,4.370573 0 0 1 4.372048,4.3705736 0.93665672,0.93665672 0 1 0 1.871838,0 A 6.2438864,6.2438864 0 0 0 10.75137,4.1947729 Z M 10.43866,7.004743 a 6.2438864,6.2438864 0 0 0 -6.2438869,6.243886 0.93665672,0.93665672 0 1 0 1.8733131,0 4.370573,4.370573 0 0 1 4.3705738,-4.3705724 0.93665672,0.93665672 0 1 0 0,-1.871839 z m 8.42991,2.8099701 a 0.93665672,0.93665672 0 0 0 -0.936657,0.9366569 4.370573,4.370573 0 0 1 -4.370573,4.370574 0.93665672,0.93665672 0 1 0 0,1.873312 A 6.2438864,6.2438864 0 0 0 19.805227,10.75137 0.93665672,0.93665672 0 0 0 18.86857,9.8147131 Z M 7.9414,12.624684 a 0.93665672,0.93665672 0 0 0 -0.9366563,0.936656 6.2438864,6.2438864 0 0 0 6.2438853,6.243887 0.936657,0.936657 0 1 0 0,-1.873314 A 4.370573,4.370573 0 0 1 8.8780567,13.56134 0.93665672,0.93665672 0 0 0 7.9414,12.624684 Z"
     fill="#ffffff"
     id="path2354"
     style="stroke-width:1.47505" /></svg>

<svg xmlns="http://www.w3.org/2000/svg" xmlns:xlink="http://www.w3.org/1999/xlink" xml:space="preserve" width="24" height="24" fill="none"><defs><linearGradient id="a"><stop offset="0" style="stop-color:#0dbc8a;stop-opacity:1"/><stop offset="1" style="stop-color:#95f;stop-opacity:1"/></linearGradient><linearGradient xlink:href="#a" id="b" x1="57.287" x2="55.753" y1="95.767" y2="-1.264" gradientTransform="matrix(.24444 0 0 .24444 -.222 -.222)" gradientUnits="userSpaceOnUse"/></defs><path d="M12 1C2 1 1 6 1 12c0 8 3 11 11 11s11-3 11-11c0-6-1-11-11-11Z" style="font-variation-settings:normal;display:inline;opacity:1;vector-effect:none;fill:url(#b);fill-opacity:1;stroke-width:1.11627;stroke-linecap:butt;stroke-linejoin:miter;stroke-miterlimit:4;stroke-dasharray:none;stroke-dashoffset:0;stroke-opacity:1;-inkscape-stroke:none;stop-color:#000;stop-opacity:1"/><path fill="#fff" d="M10.751 4.195a.937.937 0 1 0 0 1.873 4.37 4.37 0 0 1 4.372 4.37.937.937 0 1 0 1.872 0 6.244 6.244 0 0 0-6.244-6.243Zm-.312 2.81a6.244 6.244 0 0 0-6.244 6.244.937.937 0 1 0 1.873 0 4.37 4.37 0 0 1 4.37-4.37.937.937 0 1 0 0-1.873zm8.43 2.81a.937.937 0 0 0-.937.936 4.37 4.37 0 0 1-4.37 4.37.937.937 0 1 0 0 1.874 6.244 6.244 0 0 0 6.243-6.244.937.937 0 0 0-.936-.936ZM7.94 12.625a.937.937 0 0 0-.936.936 6.244 6.244 0 0 0 6.244 6.244.937.937 0 1 0 0-1.873 4.37 4.37 0 0 1-4.37-4.37.937.937 0 0 0-.938-.937Z" style="stroke-width:1.47505"/></svg>
